build/img/icons/twitter.svg

<svg width="17" height="16" viewBox="0 0 17 16" fill="none" xmlns="http://www.w3.org/2000/svg">
<path d="M10.95 1.14409C12.635 0.648089 13.934 1.41409 14.527 2.32309C15.2 2.09209 15.858 1.84209 16.538 1.61509C16.5249 2.30145 16.2117 2.94761 15.681 3.38309C16.366 3.55309 16.985 2.89209 16.985 2.89209C16.816 3.89209 15.979 4.68009 15.422 4.91609C15.191 11.6661 12.247 16.1331 5.34498 15.9981H4.89898C4.48898 15.9981 0.734977 15.5381 0.000976562 14.1111C2.27198 14.3071 3.89398 13.6891 4.69398 12.9341C3.73398 12.6341 2.01498 12.4571 1.71498 9.98409C2.06398 10.0901 2.27898 10.2121 2.90498 10.1031C1.70498 9.24709 0.373977 8.53009 0.447977 6.33009C0.732977 6.65809 1.51498 6.86609 1.78798 6.80209C1.08498 6.56109 -0.182023 3.44209 0.893977 1.85009C2.71198 3.70409 4.62898 5.45609 8.04598 5.62309C8.25398 3.33009 9.18298 1.79309 10.95 1.14409Z" fill="white"/>
</svg>

<svg width="17" height="16" fill="none" xmlns="http://www.w3.org/2000/svg"><path d="M10.95 1.144c1.685-.496 2.984.27 3.577 1.18.673-.232 1.331-.482 2.011-.709a2.345 2.345 0 01-.857 1.768c.685.17 1.304-.49 1.304-.49-.169 1-1.006 1.787-1.563 2.023-.231 6.75-3.175 11.217-10.077 11.082h-.446c-.41 0-4.164-.46-4.898-1.887 2.271.196 3.893-.422 4.693-1.177-.96-.3-2.679-.477-2.979-2.95.349.106.564.228 1.19.12C1.705 9.246.374 8.53.448 6.33c.285.328 1.067.536 1.34.472-.703-.24-1.97-3.36-.894-4.952 1.818 1.854 3.735 3.606 7.152 3.773.208-2.293 1.137-3.83 2.904-4.479z" fill="#fff"/></svg>.90498 10.1031C1.70498 9.24709 0.373977 8.53009 0.447977 6.33009C0.732977 6.65809 1.51498 6.86609 1.78798 6.80209C1.08498 6.56109 -0.182023 3.44209 0.893977 1.85009C2.71198 3.70409 4.62898 5.45609 8.04598 5.62309C8.25398 3.33009 9.18298 1.79309 10.95 1.14409Z" fill="white"/>
</svg>
